X: 28298
T: Mrs. Watson's Favourite
R: jig
M: 6/8
K: Gmajor
~B3GBd|cAG CD=F|~B3GBd|cBc Adc|
~B3GBd|cAG =Fag|fed cAF|AGGG3:|
|:=FAc =fef|cA=F CD=F|Ggg gfg|afdd2e|
=fef gfe|=fec =FAc|BdB cAF|AGGG3:|

